X:88
T: Cetvorno Sopsko Horo
O:rumania
M: 7/8
Z: John Chambers <jc@trillian.mit.edu> http://trillian.mit.edu/~jc/music/
L: 1/8
P: in G:
K: G
|: "G"~B2D BD dD | "C"~c2D cB AG \
| "D"~A2D AD cD | "G"BAB GD GA \
| "G"~B2D BD dD | "C"edc "A"cd BG |
| "D"~A2D AD dD |1 "D"~A2D ed dc :|2 "Am"~A3 ~A4 :| \
|: "C"([dB][e2c]) [e2c] [d2B] | ([dB][c2G]) [c2G] [d2B] \
| [d3B] [e2c] [d2B] | ([d2B][cG]) [c4G] :|
|: "G"[B3G3] [B2G2] [d2B2G2] \
| "C"[c3G3E2] [c2G2E2] [B2G2D2] \
| "D"[A3F3D3] [A2F2D2] [c2A2F2] \
| "G"[B2G2][AE] [G4D4] \
| "C"[c3E3] "G"[d2F2] "C"[e2G2] \
| "D"[d2F2][cE] [c2E2] [B2F2D2] \
| "Dm"[d3A3] [A4F4] \
| "Am"[A3E3] [A4E4] :|
%
P: in D:
K: D
|: "D"~f2A fA aA | "G"~g2A gf ed \
| "A"~e2A eA gA | "D"fef dA de \
| "D"~f2A fA aA | "G"bag "E"ga fd |
| "A"~e2A eA aA |1 "A"~e2A ba ag :|2 "Em"~e3 ~e4 :| \
|: "G"([af][b2g]) [b2g] [a2f] | ([af][g2d]) [g2d] [a2f] \
| [a3f] [b2g] [a2f] | ([a2f][gd]) [g4d] :|
|: "D"[f3d3] [f2d2] [a2f2d2] \
| "G"[g3d3B2] [g2d2B2] [f2d2A2] \
| "A"[e3c3A3] [e2c2A2] [g2e2c2] \
| "D"[f2d2][eB] [d4A4] \
| "G"[g3B3] "D"[a2c2] "G"[b2d2] \
| "A"[a2c2][gB] [g2B2] [f2c2A2] \
| "Am"[a3e3] [e4c4] \
| "Em"[e3B3] [e4B4] :|
%
P: in A:
K: A
|: "A"~c2E cE eE | "D"~d2E dc BA \
| "E"~B2E BE dE | "A"cBc AE AB \
| "A"~c2E cE eE | "D"fed "B"de cA |
| "E"~B2E BE eE |1 "E"~B2E fe ed :|2 "Bm"~B3 ~B4 :| \
|: "D"([ec][f2d]) [f2d] [e2c] | ([ec][d2A]) [d2A] [e2c] \
| [e3c] [f2d] [e2c] | ([e2c][dA]) [d4A] :|
|: "A"[c3A3] [c2A2] [e2c2A2] \
| "D"[d3A3F2] [d2A2F2] [c2A2E2] \
| "E"[B3G3E3] [B2G2E2] [d2B2G2] \
| "A"[c2A2][BF] [A4E4] \
| "D"[d3F3] "A"[e2G2] "D"[f2A2] \
| "E"[e2G2][dF] [d2F2] [c2G2E2] \
| "Em"[e3B3] [B4G4] \
| "Bm"[B3F3] [B4F4] :|
%
P: in E:
K: E
|: "E"~g2B gB bB | "A"~a2B ag fe \
| "B"~f2B fB aB | "E"gfg eB ef \
| "E"~g2B gB bB | "A"c'ba "F"ab ge |
| "B"~f2B fB bB |1 "B"~f2B c'b ba :|2 "F#m"~f3 ~f4 :| \
|: "A"([bg][c'2a]) [c'2a] [b2g] | ([bg][a2e]) [a2e] [b2g] \
| [b3g] [c'2a] [b2g] | ([b2g][ae]) [a4e] :|
|: "E"[g3e3] [g2e2] [b2g2e2] \
| "A"[a3e3c2] [a2e2c2] [g2e2B2] \
| "B"[f3d3B3] [f2d2B2] [a2f2d2] \
| "E"[g2e2][fc] [e4B4] \
| "A"[a3c3] "E"[b2d2] "A"[c'2e2] \
| "B"[b2d2][ac] [a2c2] [g2d2B2] \
| "Bm"[b3f3] [f4d4] \
| "F#m"[f3c3] [f4c4] :|
